dist/assets/images/linking-4.svg

<?xml version="1.0" encoding="UTF-8"?>
<svg width="81px" height="80px" viewBox="0 0 81 80" version="1.1" xmlns="http://www.w3.org/2000/svg" xmlns:xlink="http://www.w3.org/1999/xlink">
    <!-- Generator: Sketch 41.2 (35397) - http://www.bohemiancoding.com/sketch -->
    <title>Group 5</title>
    <desc>Created with Sketch.</desc>
    <defs>
        <polygon id="path-1" points="0 79.8542259 68.9994979 79.8542259 68.9994979 0 0 0"></polygon>
    </defs>
    <g id="LP:-Верстка" stroke="none" stroke-width="1" fill="none" fill-rule="evenodd">
        <g id="Сквозное-меню" transform="translate(-167.000000, -230.000000)">
            <g id="Group-2" transform="translate(130.000000, 230.000000)">
                <g id="Group-5" transform="translate(37.000000, 0.000000)">
                    <g id="Group-9">
                        <g id="Group-8">
                            <ellipse id="Oval-4" fill="#FFE258" cx="53" cy="44" rx="28" ry="28"></ellipse>
                            <g id="Page-1">
                                <path d="M57.8187782,45.2927197 C59.1195314,46.4237657 60.1946778,47.7779079 61.0155983,49.3169874 C61.843046,50.8639331 62.4542594,52.5989958 62.8353473,54.4672803 C63.2177741,56.3531381 63.484887,58.2699582 63.6259749,60.1596653 C63.6967699,61.3703766 63.7677322,62.7874477 63.8395314,64.4205858 C63.9079833,66.0592469 64.0340084,67.7584937 64.2149289,69.4666109 C64.3941757,71.1881172 64.6852218,72.8451883 65.081205,74.3897908 C65.1801172,74.7772385 65.297272,75.1461088 65.4199498,75.5072803 L66.4514142,75.5072803 C66.2887364,75.074477 66.1389456,74.6272803 66.0186109,74.1499582 C65.6328368,72.6507113 65.3491548,71.0423431 65.1761004,69.3653556 C64.997523,67.6756485 64.8725021,65.9986611 64.8038828,64.3775732 C64.732251,62.7395816 64.6612887,61.3169874 64.5894895,60.0967364 C64.4460586,58.1583264 64.1734226,56.1991632 63.7806192,54.2751464 C63.3812887,52.314477 62.737272,50.4940586 61.8668117,48.8625941 C60.9909958,47.2190795 59.8423766,45.7733891 58.4507448,44.5635146 C57.6505774,43.8684519 56.7125021,43.2801674 55.6676485,42.7861088 L55.6676485,43.8532218 C56.4686527,44.2677824 57.1891548,44.7451046 57.8187782,45.2927197 L57.8187782,45.2927197 Z" id="Fill-1" fill="#000000"></path>
                                <path d="M51.8163682,4.08239331 C53.796954,4.88105439 55.5798828,5.91000837 57.1437322,7.14699582 L57.1437322,6.67988285 L58.0849874,6.67988285 C56.3649874,5.25795816 54.3931046,4.07921339 52.1782092,3.1856569 C50.8336067,2.64540586 49.400636,2.23653556 47.8878326,1.95519665 L47.8878326,2.94097071 C49.2705941,3.20958996 50.5849038,3.58749791 51.8163682,4.08239331" id="Fill-3" fill="#000000"></path>
                                <path d="M61.8238494,34.3893724 C60.4466109,36.7788285 58.3823431,38.7562343 55.6675314,40.294477 L55.6675314,41.3952301 C58.7672803,39.7366527 61.1169038,37.5527197 62.6591632,34.8715481 C63.9870293,32.5697908 64.8501255,29.9426778 65.2638494,27.04159 L64.2882845,27.04159 C63.8849372,29.7666109 63.0671967,32.231046 61.8238494,34.3893724" id="Fill-5" fill="#000000"></path>
                                <mask id="mask-2" fill="white">
                                    <use xlink:href="#path-1"></use>
                                </mask>
                                <g id="Clip-8"></g>
                                <polygon id="Fill-7" fill="#000000" mask="url(#mask-2)" points="4.34694561 2.46359833 42.5755649 2.46359833 42.5755649 1.49841004 4.34694561 1.49841004"></polygon>
                                <polygon id="Fill-9" fill="#000000" mask="url(#mask-2)" points="1.20753138 75.5064435 2.17355649 75.5064435 2.17355649 4.63715481 1.20753138 4.63715481"></polygon>
                                <path d="M49.3344268,69.4896736 C49.1215397,66.1644854 48.7971883,62.9238159 48.3715816,59.8496736 C48.1309121,58.1870795 47.7714142,56.7069121 47.3076485,55.395113 L46.279364,55.395113 C46.7807866,56.7189623 47.1633808,58.2436485 47.4144268,59.9844017 C47.8376904,63.031431 48.1588619,66.249841 48.3692385,69.5510962 C48.5071464,71.7181255 48.7988619,73.7084184 49.2380251,75.50641 L50.243046,75.50641 C49.7848033,73.702728 49.473841,71.6982092 49.3344268,69.4896736" id="Fill-10" fill="#000000" mask="url(#mask-2)"></path>
                                <polygon id="Fill-11" fill="#000000" mask="url(#mask-2)" points="17.9586611 75.5064435 18.9246862 75.5064435 18.9246862 51.0497071 17.9586611 51.0497071"></polygon>
                                <path d="M43.7233473,50.0820586 C41.7635146,48.6433975 38.905272,47.9110126 35.1936402,47.9110126 L21.0974059,47.9110126 L21.0974059,48.8777071 L35.1928033,48.8777071 C38.3410879,48.8777071 40.8078661,49.4213054 42.5755649,50.484569 L42.5755649,50.0820586 L43.7233473,50.0820586 Z" id="Fill-12" fill="#000000" mask="url(#mask-2)"></path>
                                <polygon id="Fill-13" fill="#000000" mask="url(#mask-2)" points="4.34694561 78.6466946 15.7859414 78.6466946 15.7859414 77.6806695 4.34694561 77.6806695"></polygon>
                                <polygon id="Fill-14" fill="#000000" mask="url(#mask-2)" points="53.1991632 78.6466946 64.6540586 78.6466946 64.6540586 77.6806695 53.1991632 77.6806695"></polygon>
                                <path d="M45.1197322,17.8685858 C46.187682,18.7994644 46.9352971,20.0978745 47.3744603,21.7301757 L48.3811548,21.7301757 C47.9045021,19.7885858 47.0286862,18.2503431 45.755046,17.140887 C44.7746276,16.288 43.5471799,15.6448201 42.0934561,15.2056569 L42.0934561,16.2259079 C43.2881004,16.6203849 44.3068452,17.162477 45.1197322,17.8685858" id="Fill-15" fill="#000000" mask="url(#mask-2)"></path>
                                <polygon id="Fill-16" fill="#000000" mask="url(#mask-2)" points="21.0974059 36.925523 36.779749 36.925523 36.779749 35.9603347 21.0974059 35.9603347"></polygon>
                                <polygon id="Fill-17" fill="#000000" mask="url(#mask-2)" points="21.0974059 15.4791632 36.779749 15.4791632 36.779749 14.5139749 21.0974059 14.5139749"></polygon>
                                <polygon id="Fill-18" fill="#000000" mask="url(#mask-2)" points="17.9586611 33.7238494 18.9246862 33.7238494 18.9246862 17.6533891 17.9586611 17.6533891"></polygon>
                                <path d="M45.1149623,33.5222092 C44.3035816,34.2435481 43.2865105,34.797523 42.0933724,35.1991967 L42.0933724,36.2217908 C43.5504435,35.7737573 44.7778912,35.1155146 45.7589791,34.2443849 C47.5164686,32.6796987 48.5191464,30.2599498 48.7486025,27.0415397 L47.7762176,27.0415397 C47.5554644,29.9627113 46.6667615,32.1426276 45.1149623,33.5222092" id="Fill-19" fill="#000000" mask="url(#mask-2)"></path>
                                <polygon id="Fill-20" fill="#000000" mask="url(#mask-2)" points="0 3.67196653 3.38025105 3.67196653 3.38025105 0.290209205 0 0.290209205"></polygon>
                                <polygon id="Fill-21" fill="#000000" mask="url(#mask-2)" points="43.5424268 3.67196653 46.9210042 3.67196653 46.9210042 0.290209205 43.5424268 0.290209205"></polygon>
                                <polygon id="Fill-22" fill="#000000" mask="url(#mask-2)" points="16.7502929 16.6890377 20.1320502 16.6890377 20.1320502 13.3087866 16.7502929 13.3087866"></polygon>
                                <polygon id="Fill-23" fill="#000000" mask="url(#mask-2)" points="16.7502929 38.070795 20.1320502 38.070795 20.1320502 34.6890377 16.7502929 34.6890377"></polygon>
                                <polygon id="Fill-24" fill="#000000" mask="url(#mask-2)" points="16.7502929 50.0820084 20.1320502 50.0820084 20.1320502 46.7042678 16.7502929 46.7042678"></polygon>
                                <polygon id="Fill-25" fill="#000000" mask="url(#mask-2)" points="43.5424268 54.4282845 46.9210042 54.4282845 46.9210042 51.0497071 43.5424268 51.0497071"></polygon>
                                <polygon id="Fill-26" fill="#000000" mask="url(#mask-2)" points="16.7502929 79.8542259 20.1320502 79.8542259 20.1320502 76.4724686 16.7502929 76.4724686"></polygon>
                                <polygon id="Fill-27" fill="#000000" mask="url(#mask-2)" points="0 79.8542259 3.38025105 79.8542259 3.38025105 76.4724686 0 76.4724686"></polygon>
                                <polygon id="Fill-28" fill="#000000" mask="url(#mask-2)" points="48.8538912 79.8542259 52.2333054 79.8542259 52.2333054 76.4724686 48.8538912 76.4724686"></polygon>
                                <polygon id="Fill-29" fill="#000000" mask="url(#mask-2)" points="65.61841 79.8542259 68.9993305 79.8542259 68.9993305 76.4724686 65.61841 76.4724686"></polygon>
                                <polygon id="Fill-30" fill="#000000" mask="url(#mask-2)" points="51.3221757 44.0015063 54.7007531 44.0015063 54.7007531 40.6220921 51.3221757 40.6220921"></polygon>
                                <polygon id="Fill-31" fill="#000000" mask="url(#mask-2)" points="46.6826778 26.076318 50.0612552 26.076318 50.0612552 22.6969038 46.6826778 22.6969038"></polygon>
                                <polygon id="Fill-32" fill="#000000" mask="url(#mask-2)" points="37.7472803 16.6890377 41.1258577 16.6890377 41.1258577 13.3087866 37.7472803 13.3087866"></polygon>
                                <polygon id="Fill-33" fill="#000000" mask="url(#mask-2)" points="37.7472803 38.070795 41.1258577 38.070795 41.1258577 34.6890377 37.7472803 34.6890377"></polygon>
                                <polygon id="Fill-34" fill="#000000" mask="url(#mask-2)" points="58.1096234 11.025272 61.4905439 11.025272 61.4905439 7.64585774 58.1096234 7.64585774"></polygon>
                                <path d="M66.8267782,26.0763849 L66.8267782,22.6969707 L65.5332218,22.6969707 L65.5332218,3.32207531 C66.2353138,3.11320502 66.7502929,2.4700251 66.7502929,1.70015063 C66.7502929,0.760401674 65.9882845,6.69456067e-05 65.0493724,6.69456067e-05 C64.108954,6.69456067e-05 63.3492887,0.760401674 63.3492887,1.70015063 C63.3492887,2.4700251 63.863431,3.11320502 64.5663598,3.32207531 L64.5663598,16.3287699 C64.3902929,15.7612385 64.1909623,15.2025774 63.9678661,14.6557992 C63.5486192,13.6291883 63.0281172,12.6608201 62.4558996,11.7267615 L62.4558996,11.9920335 L61.4907113,11.9920335 C62.0995816,12.9525356 62.6383264,13.9567197 63.0736402,15.0208201 C63.9263598,17.1122008 64.4174059,19.363749 64.5481172,21.7309456 L64.5663598,21.7309456 L64.5663598,22.6978075 L63.447364,22.6978075 L63.447364,26.0772218 L64.5663598,26.0772218 L64.5663598,45.3429958 C63.863431,45.5501925 63.3492887,46.1942092 63.3492887,46.9640837 C63.3492887,47.9029958 64.1112971,48.6641674 65.0493724,48.6641674 C65.9899582,48.6641674 66.7502929,47.9029958 66.7502929,46.9640837 C66.7502929,46.1942092 66.2353138,45.5501925 65.5332218,45.342159 L65.5332218,26.0763849 L66.8267782,26.0763849 Z" id="Fill-35" fill="#000000" mask="url(#mask-2)"></path>
                            </g>
                        </g>
                    </g>
                </g>
            </g>
        </g>
    </g>
</svg>

<svg width="81" height="80" viewBox="0 0 81 80" xmlns="http://www.w3.org/2000/svg" xmlns:xlink="http://www.w3.org/1999/xlink"><title>Group 5</title><defs><path id="a" d="M0 79.854h69V0H0z"/></defs><g fill="none" fill-rule="evenodd"><ellipse fill="#FFE258" cx="53" cy="44" rx="28" ry="28"/><path d="M57.819 45.293a14.105 14.105 0 0 1 3.197 4.024c.827 1.547 1.438 3.282 1.82 5.15.382 1.886.649 3.803.79 5.693.07 1.21.142 2.627.214 4.26.068 1.64.194 3.338.375 5.047.18 1.721.47 3.378.866 4.923.1.387.216.756.339 1.117h1.031c-.162-.433-.312-.88-.432-1.357-.386-1.5-.67-3.108-.843-4.785a79.771 79.771 0 0 1-.372-4.987 290.552 290.552 0 0 0-.215-4.281 46.295 46.295 0 0 0-.808-5.822c-.4-1.96-1.044-3.78-1.914-5.412a15.046 15.046 0 0 0-3.416-4.3c-.8-.695-1.738-1.283-2.783-1.777v1.067a10.88 10.88 0 0 1 2.15 1.44zM51.816 4.082c1.981.8 3.764 1.828 5.328 3.065V6.68h.941a22.34 22.34 0 0 0-5.907-3.494 22.541 22.541 0 0 0-4.29-1.23v.985c1.383.269 2.697.646 3.928 1.141M61.824 34.39c-1.377 2.389-3.442 4.366-6.156 5.904v1.101c3.1-1.658 5.449-3.842 6.991-6.523 1.328-2.302 2.191-4.93 2.605-7.83h-.976c-.403 2.725-1.22 5.189-2.464 7.347" fill="#000"/><mask id="b" fill="#fff"><use xlink:href="#a"/></mask><path fill="#000" mask="url(#b)" d="M4.347 2.464h38.229v-.966H4.346zM1.208 75.506h.966V4.637h-.966zm48.126-6.016a132.223 132.223 0 0 0-.962-9.64c-.241-1.663-.6-3.143-1.064-4.455h-1.029c.502 1.324.884 2.849 1.135 4.59.424 3.046.745 6.265.955 9.566.138 2.167.43 4.157.869 5.955h1.005c-.458-1.803-.77-3.808-.909-6.016m-31.375 6.016h.966V51.05h-.966zm25.764-25.424c-1.96-1.439-4.818-2.171-8.53-2.171H21.098v.967h14.096c3.148 0 5.615.543 7.383 1.607v-.403h1.147zM4.347 78.647h11.439v-.966H4.346zm48.853 0h11.454v-.966H53.2zm-8.08-60.778c1.068.93 1.815 2.229 2.254 3.861h1.007c-.476-1.941-1.352-3.48-2.626-4.59-.98-.852-2.208-1.495-3.662-1.934v1.02c1.195.394 2.214.936 3.027 1.643M21.097 36.926H36.78v-.966H21.097zm0-21.446H36.78v-.966H21.097zm-3.138 18.244h.966v-16.07h-.966zm27.156-.202c-.811.722-1.828 1.276-3.022 1.677v1.023c1.457-.448 2.685-1.106 3.666-1.978 1.757-1.564 2.76-3.984 2.99-7.202h-.973c-.22 2.92-1.11 5.1-2.661 6.48M0 3.672h3.38V.29H0zm43.542 0h3.379V.29h-3.379zM16.75 16.689h3.382v-3.38H16.75zm0 21.381h3.382v-3.38H16.75zm0 12.012h3.382v-3.378H16.75zm26.792 4.346h3.379V51.05h-3.379zM16.75 79.854h3.382v-3.382H16.75zm-16.75 0h3.38v-3.382H0zm48.854 0h3.38v-3.382h-3.38zm16.764 0H69v-3.382h-3.38zM51.322 44.002h3.379v-3.38h-3.379zm-4.639-17.926h3.378v-3.38h-3.378zm-8.936-9.387h3.379v-3.38h-3.379zm0 21.381h3.379v-3.38h-3.379zM58.11 11.025h3.38v-3.38h-3.38zm8.717 15.051v-3.379h-1.294V3.322A1.694 1.694 0 0 0 65.05 0c-.94 0-1.7.76-1.7 1.7 0 .77.514 1.413 1.217 1.622V16.33a20.534 20.534 0 0 0-.598-1.673 20.337 20.337 0 0 0-1.512-2.93v.266h-.965a19.33 19.33 0 0 1 1.583 3.029c.852 2.091 1.343 4.343 1.474 6.71h.018v.967h-1.119v3.38h1.12v19.265a1.69 1.69 0 0 0-1.218 1.621 1.7 1.7 0 0 0 3.401 0c0-.77-.515-1.414-1.217-1.622V26.076h1.294z"/></g></svg>
